X:1
T:If I Could Hear My Mother Pray Again
T:If I Could Hear My Mother Pray Again
T:John W. Vaughan
T:James Rowe
T:PUBLIC DOMAIN
T:PUBLIC DOMAIN
C:John W. Vaughan
Z:James Rowe
Z:PUBLIC DOMAIN
%%score ( 1 2 ) ( 3 4 )
L:1/8
Q:1/4=90
M:4/4
K:Bb
V:1 treble nm="SOPRANO ALTO"
V:2 treble 
V:3 bass nm="TENOR BASS"
V:4 bass 
V:1
 [DF] | [DB]3/2 [DB]/ [EB] [DB] [Fd]3 [FB] | [EG]3/2 [Gc]/ [GB] [EG] [DF]3 [DF] | %3
w: 1.~How|sweet and hap- py seem those|days of which I dream, When|
w: 2.~She|used to pray that I on|Je- sus would re- ly, And|
w: 3.~With-|in the old home- place her|pa- tient, smil- ing face Was|
w: 4.~Her|work on earth is done, the|life- crown has been won, And|
 [DB]3/2 [EA]/ [FB] [Fc] [Fd]/ [FB]3/2 [=EG] [Ed] | [Fc]6 z | [EF] | %6
w: mem- o- ry re- calls them now and|then!|And|
w: al- ways walk the shin- ing gos- pel|way;|So|
w: al- ways spread- ing com- fort, hope and|cheer;|And|
w: she will be at rest with Him a-|bove;|And|
 [DB]3/2 [DB]/ [EB] [DB] [Fd]3 [FB] | [EG]3/2 [Gc]/ [GB] [EG] [DF]3 [DF] | %8
w: with what rap- ture sweet my|wear- y heart would beat, If|
w: trust- ing still His love, I|seek that home a- bove, Where|
w: when she used to sing to|her e- ter- nal King, It|
w: some glad morn- ing she, I|know, will wel- come me To|
 [DB]3/2 [EA]/ [FB] [Gc] [Fd]/ [DB]3/2 [Ec] [Fd] | B6 z ||"^Refrain" [DF] | d2 d2 [Fd]3 [^Fc] | %12
w: I could hear my moth- er pray a-|gain.|If|I could hear my|
w: I shall meet my moth- er some glad|day.|||
w: was the songs the an- gels loved to|hear.|||
w: that e- ter- nal home of peace and|love.|||
 [GB]3/2 [Gc]/ [GB] [EG] [DF]3 F | B2 B2 [DB]3 [Fd] | [=Ec] [EG] [Ec] [Ed] [_Ec]3 | F | %16
w: moth- er pray a- gain, If|I could hear her|ten- der voice as then!|So|
w: ||||
w: ||||
w: ||||
 d2 d2 [Fd]3 [^Fc] | [GB]3/2 [Gc]/ [GB] [EG] [DF]3 [DF] | %18
w: glad I’d be, ’twould|mean so much to me, If|
w: ||
w: ||
w: ||
 [DB]3/2 [EA]/ [FB] [Gc] [Fd]/ [DB]3/2 [Ec] [Fd] | B6 z |] %20
w: I could hear my moth- er pray a-|gain.|
w: ||
w: ||
w: ||
V:2
 x | x8 | x8 | x8 | x7 | x | x8 | x8 | x8 | (D2 ^C2 D2) z || x | F G BG z4 | z4 z3 F | D D EE z4 | %14
w: |||||||||||I could on- ly|||
 x7 | F | F G BG z4 | x8 | x8 | (D2 ^C2 D2) z |] %20
w: ||hap- py I should||||
V:3
 [B,,B,] | [B,,F,]3/2 [B,,F,]/ [B,,G,] [B,,F,] [B,,B,]3 [D,B,] | %2
w: ||
 [E,B,]3/2 [E,B,]/ [E,B,] [E,B,] [B,,B,]3 [B,,F,] | %3
w: |
 [B,,F,]3/2 [C,F,]/ [D,B,] [F,A,] [B,,B,]/ [B,,D]3/2 [C,C] [C,B,] | [F,A,]6 z | [F,A,] | %6
w: |||
 [B,,B,]3/2 [B,,F,]/ [B,,G,] [B,,F,] [B,,B,]3 [D,B,] | %7
w: |
 [E,B,]3/2 [E,B,]/ [E,B,] [E,B,] [B,,B,]3 [B,,B,] | %8
w: |
 [B,,F,]3/2 [C,F,]/ [D,B,] [E,B,] [F,B,]/ [F,B,]3/2 [F,A,] [F,A,] | (B, F, G,2 F,2) z || [B,,B,] | %11
w: |||
 [B,,B,]2 [B,,B,]2 B,3 [D,B,] | [E,B,]3/2 [E,B,]/ [E,B,] [E,B,] [B,,B,]3 [B,,D] | %13
w: ||
 B, F,G,G, [B,,F,]3 [B,,B,] | [C,G,] [C,C] [C,B,] [C,B,] [F,A,]3 | [F,A,] | %16
w: I could on- ly * *|||
 [B,,B,]2 [B,,B,]2 B,3 [D,B,] | [E,B,]3/2 [E,B,]/ [E,B,] [E,B,] [B,,B,]3 [B,,B,] | %18
w: ||
 [B,,F,]3/2 [C,F,]/ [D,B,] [E,B,] [F,B,]/ [F,B,]3/2 [F,A,] [F,A,] | (B, F, G,2 F,2) z |] %20
w: ||
V:4
 x | x8 | x8 | x8 | x7 | x | x8 | x8 | x8 | B,,6 z || D, | D,2 D,2 D, F, B,, z | x8 | %13
w: ||||||||||If|I could on- ly hear||
 B,,2 B,,2 z4 | x7 | D, | D,2 D,2 D, F, B,, z | x8 | x8 | B,,6 z |] %20
w: ||So|hap- py I should be,||||

